src/icons/SVG/16px/Navigation_Arrow_Up_16px.svg

<svg width="16" height="16" viewBox="0 0 16 16" fill="none" xmlns="http://www.w3.org/2000/svg">
  <g id="Square"> </g>
  <g id="Icon">
<path id="Vector" d="M7 13C7 13.5523 7.44772 14 8 14C8.55228 14 9 13.5523 9 13H7ZM8 3L8.70711 2.29289C8.31658 1.90237 7.68342 1.90237 7.29289 2.29289L8 3ZM4.29289 5.29289C3.90237 5.68342 3.90237 6.31658 4.29289 6.70711C4.68342 7.09763 5.31658 7.09763 5.70711 6.70711L4.29289 5.29289ZM10.2929 6.70711C10.6834 7.09763 11.3166 7.09763 11.7071 6.70711C12.0976 6.31658 12.0976 5.68342 11.7071 5.29289L10.2929 6.70711ZM9 13V3H7V13H9ZM7.29289 2.29289L4.29289 5.29289L5.70711 6.70711L8.70711 3.70711L7.29289 2.29289ZM7.29289 3.70711L10.2929 6.70711L11.7071 5.29289L8.70711 2.29289L7.29289 3.70711Z" fill="black"/>
</g>
</svg>

<svg xmlns="http://www.w3.org/2000/svg" viewBox="0 0 16 16">
  <g id="Square"> </g>
  <path d="M7 13a1 1 0 102 0H7zM8 3l.707-.707a1 1 0 00-1.414 0L8 3zM4.293 5.293a1 1 0 001.414 1.414L4.293 5.293zm6 1.414a1 1 0 101.414-1.414l-1.414 1.414zM9 13V3H7v10h2zM7.293 2.293l-3 3 1.414 1.414 3-3-1.414-1.414zm0 1.414l3 3 1.414-1.414-3-3-1.414 1.414z"/>
</svg>
